X: 39354
T: Tam's Auld Love Song
R: waltz
M: 3/4
K: Gmajor
|:G>A|B2d>B c/B/A/G/|E>F G>G FE||D>E GD dB|A4d>c|
B2d>B c/B/A/G/|E>F G>G FE|D>E GD BA|G4:|:A>G||
FA D2 d>c|B<d G2A>G|FA D2 d>c|B4A>G|
FA D2 d>c|B<d G2A>G|FA GE D2-|D4G>A|
B2d>B c/B/A/G/|E>F G>G FE|D>E GD dB|A4G>A|
B2d>B c/B/A/G/|E>F G>G FE|D>E GD BA|G4|

